svgs/marindeck.svg

<svg width="192" height="192" viewBox="0 0 192 192" fill="none" xmlns="http://www.w3.org/2000/svg">
<path d="M120 164C120 164 108 170 96 170C84 170 72 164 72 164L79.8579 155.02C83.6537 150.681 84.8185 144.642 83.0394 139.159C81.7684 135.243 80.2488 130.402 78.817 125.439C75.5404 114.081 84.1789 104 96 104C107.821 104 116.46 114.081 113.183 125.439C111.751 130.402 110.232 135.243 108.961 139.159C107.181 144.642 108.346 150.681 112.142 155.02L120 164Z" stroke="black" stroke-width="12" stroke-linejoin="round"/>
<path fill-rule="evenodd" clip-rule="evenodd" d="M100.599 92.1802C102.566 94.2569 105.911 95.3488 107.036 92.7194C107.657 91.2708 108 89.6755 108 88C108 81.3726 102.627 76 96 76C89.3726 76 84 81.3726 84 88C84 89.6755 84.3434 91.2708 84.9636 92.7194C86.0895 95.3488 89.4337 94.2569 91.4007 92.1802C92.7018 90.8066 94.2881 90 96 90C97.7119 90 99.2982 90.8066 100.599 92.1802Z" fill="black"/>
<path d="M96 22C55.1309 22 22 55.1309 22 96C22 136.869 54 156 82 144C82 144 56 139.2 56 104C56 72.8 80 55.5 108 55.5C140.688 55.5 159.91 85.5938 163.17 116.584C163.396 118.733 166.315 119.228 166.931 117.157C168.928 110.454 170 103.352 170 96C170 55.1309 136.869 22 96 22Z" stroke="black" stroke-width="12" stroke-linecap="round" stroke-linejoin="round"/>
</svg>

<svg xmlns="http://www.w3.org/2000/svg" width="192" height="192" fill="none" xmlns:v="https://vecta.io/nano"><path d="M120 164s-12 6-24 6-24-6-24-6l7.858-8.98c3.796-4.339 4.961-10.378 3.182-15.861-1.271-3.916-2.791-8.757-4.222-13.72C75.54 114.081 84.179 104 96 104s20.46 10.081 17.183 21.439c-1.432 4.963-2.951 9.804-4.222 13.72-1.78 5.483-.615 11.522 3.181 15.861L120 164z" stroke="#000" stroke-width="12" stroke-linejoin="round"/><path fill-rule="evenodd" d="M100.599 92.18c1.967 2.077 5.312 3.169 6.437.539A11.95 11.95 0 0 0 108 88c0-6.627-5.373-12-12-12s-12 5.373-12 12a11.96 11.96 0 0 0 .964 4.719c1.126 2.629 4.47 1.538 6.437-.539C92.702 90.807 94.288 90 96 90s3.298.807 4.599 2.18z" fill="#000"/><path d="M96 22c-40.869 0-74 33.131-74 74s32 60 60 48c0 0-26-4.8-26-40 0-31.2 24-48.5 52-48.5 32.688 0 51.91 30.094 55.17 61.084.226 2.149 3.145 2.644 3.761.573C168.928 110.454 170 103.352 170 96c0-40.869-33.131-74-74-74z" stroke="#000" stroke-width="12" stroke-linejoin="round"/></svg>
